icon-themes/breeze_svg/cmd/lc_connectorcirclestart.svg

<svg viewBox="0 0 24 24" xmlns="http://www.w3.org/2000/svg"><path d="m7 4c-1.6568542 0-3 1.343141-3 3s1.3431458 3 3 3c.7723864 0 1.4682561-.3017564 2-.78125.3237431-.2919314.577653-.6550256.75-1.0625.0215062-.0508463.0437635-.1040168.0625-.15625h1.1875v8 2h3 3v-2h-1-3v-8-2h-3.1875c-.0190872-.053211-.0405808-.104466-.0625-.15625-.172347-.4074744-.4262569-.7705686-.75-1.0625-.5317439-.4794936-1.2276136-.78125-2-.78125zm0 2c.5522847 0 1 .4477153 1 1s-.4477153 1-1 1-1-.4477153-1-1 .4477153-1 1-1z" fill="#4d4d4d"/></svg>

<svg xmlns="http://www.w3.org/2000/svg" viewBox="0 0 24 24">
 <path 
     style="fill:#4d4d4d" 
     d="M 7 4 C 5.3431458 4 4 5.343141 4 7 C 4 8.656859 5.3431458 10 7 10 C 7.7723864 10 8.4682561 9.6982436 9 9.21875 C 9.3237431 8.9268186 9.577653 8.5637244 9.75 8.15625 C 9.7715062 8.1054037 9.7937635 8.0522332 9.8125 8 L 11 8 L 11 16 L 11 18 L 14 18 L 17 18 L 17 16 L 16 16 L 13 16 L 13 8 L 13 6 L 9.8125 6 C 9.7934128 5.946789 9.7719192 5.895534 9.75 5.84375 C 9.577653 5.4362756 9.3237431 5.0731814 9 4.78125 C 8.4682561 4.3017564 7.7723864 4 7 4 z M 7 6 C 7.5522847 6 8 6.4477153 8 7 C 8 7.5522847 7.5522847 8 7 8 C 6.4477153 8 6 7.5522847 6 7 C 6 6.4477153 6.4477153 6 7 6 z "
     />
 </svg>
